;FLAVOR:Marlin
;TIME:16010
;Filament used: 25.6789m
;Layer height: 0.25
;MINX:183.507
;MINY:58.925
;MINZ:0.425
;MAXX:267.366
;MAXY:221.074
;MAXZ:19.925
;Generated with Cura_SteamEngine 4.13.6
M82 ;absolute extrusion mode
;This G-Code has been generated specifically for the LulzBot TAZ 6 | Single Extruder

;SETTINGS
;Nozzle diameter = 0.5mm
;Filament name = Generic PLA (Easy Printing)
;Filament type = PLA (Easy Printing) 1.75
;Filament weight = ~72.27g
;Extruder temp = M109 S215
;Bed temp = M190 S60

;The following lines can be uncommented for printer specific fine tuning
;More information can be found at https://marlinfw.org/meta/gcode/
;
;M92 E420                                   ;Set Axis Steps-per-unit
;M301 P21.0 I1.78 D61.93                    ;Set Hotend PID
;M906 E160                                  ;Digipot Motor Current ((875mA-750)/5+135) = 160
;M206 Y0                                    ;Set Home Offsets (default:0)
;
M73 P0                                      ; clear GLCD progress bar
M75                                         ; start GLCD timer
G26                                         ; clear potential 'probe fail' condition
M107                                        ; disable fans
M420 S0                                     ; disable leveling matrix
G90                                         ; absolute positioning
M82                                         ; set extruder to absolute mode
G92 E0                                      ; set extruder position to 0
M140 S60    ; start bed heating up
G28 XY                                      ; home X and Y
G1 X-19 Y258 F1000                          ; move to safe homing position
M109 R180         ; soften filament before homing Z
G28 Z                                       ; home Z
G1 E-15 F100                                ; retract filament
M109 R180           ; wait for extruder to reach wiping temp
;M206 X0 Y0 Z0                               ; uncomment to adjust wipe position (+X ~ nozzle moves left)(+Y ~ nozzle moves forward)(+Z ~ nozzle moves down)
G12                                         ; wiping sequence
M206 X0 Y0 Z0                               ; reseting stock nozzle position ### CAUTION: changing this line can affect print quality ###
G1 Z10 F5000                                ; raise nozzle after wipe
M109 R160          ; wait for extruder to reach probe temp
G1 X-10 Y293 F4000                          ; move above first probe point
M204 S100                                   ; set probing acceleration
G29                                         ; start auto-leveling sequence
M420 S1                                     ; enable leveling matrix
M204 S500                                   ; restore standard acceleration
G1 X0 Y0 Z15 F5000                          ; move up off last probe point
G4 S1                                       ; pause
M400                                        ; wait for moves to finish
M117 Heating...                             ; progress indicator message on LCD
M109 R215  ; wait for extruder to reach printing temp
M190 R60    ; wait for bed to reach printing temp
G1 Z2 E0 F75                                ; prime tiny bit of filament into the nozzle
M117 TAZ 6 Printing...                      ; progress indicator message on LCD
;Start G-Code End

G92 E0
G92 E0
G1 F600 E-1
;LAYER_COUNT:79
;LAYER:0
M107
G0 F3500 X219.312 Y181.772 Z0.425
;TYPE:SKIRT
G1 F600 E0
G1 F900 X218.254 Y183.076 E0.14835
G1 X217.462 Y184.584 E0.29884
G1 X216.983 Y186.199 E0.44766
G1 X216.817 Y187.852 E0.59444
G1 X216.987 Y189.582 E0.74801
G1 X217.471 Y191.229 E0.89967
G1 X218.251 Y192.718 E1.04818
G1 X219.303 Y194.014 E1.19565
G1 X220.597 Y195.093 E1.3445
G1 X222.01 Y195.865 E1.48675
G1 X223.612 Y196.354 E1.63473
G1 X225.244 Y196.519 E1.77965
G1 X226.813 Y196.363 E1.91895
G1 X228.43 Y195.865 E2.06843
G1 X229.855 Y195.083 E2.21203
G1 X231.149 Y194.006 E2.36077
G1 X232.192 Y192.723 E2.50685
G1 X232.977 Y191.218 E2.65681
G1 X233.465 Y189.57 E2.80866
G1 X233.633 Y187.872 E2.9594
G1 X233.464 Y186.193 E3.10849
G1 X232.985 Y184.572 E3.25782
G1 X232.188 Y183.064 E3.40851
G1 X231.156 Y181.793 E3.55316
G1 X229.852 Y180.693 E3.70388
G1 X228.437 Y179.929 E3.84594
G1 X226.84 Y179.436 E3.9936
G1 X225.214 Y179.274 E4.13797
G1 X223.589 Y179.435 E4.28224
G1 X222.039 Y179.918 E4.42567
G1 X220.589 Y180.702 E4.5713
G1 X219.312 Y181.772 E4.71849
G0 F3500 X218.956 Y181.418
G1 F900 X217.833 Y182.802 E4.87595
G1 X216.996 Y184.394 E5.03485
G1 X216.491 Y186.097 E5.19178
G1 X216.315 Y187.851 E5.34752
G1 X216.495 Y189.683 E5.51015
G1 X217.005 Y191.416 E5.66975
G1 X217.832 Y192.996 E5.8273
G1 X218.942 Y194.365 E5.98301
G1 X220.316 Y195.51 E6.14103
G1 X221.812 Y196.327 E6.29162
G1 X223.517 Y196.847 E6.4491
G1 X225.243 Y197.022 E6.60237
G1 X226.91 Y196.856 E6.75037
G1 X228.623 Y196.329 E6.90871
G1 X230.136 Y195.498 E7.06122
G1 X231.508 Y194.357 E7.21887
G1 X232.612 Y193 E7.37342
G1 X233.442 Y191.406 E7.53219
G1 X233.958 Y189.667 E7.69245
G1 X234.135 Y187.87 E7.85198
G1 X233.956 Y186.091 E8.00994
G1 X233.452 Y184.385 E8.1671
G1 X232.608 Y182.789 E8.3266
G1 X231.513 Y181.44 E8.4801
G1 X230.134 Y180.276 E8.63954
G1 X228.634 Y179.467 E8.7901
G1 X226.942 Y178.945 E8.94654
G1 X225.209 Y178.771 E9.10041
G1 X223.493 Y178.942 E9.25277
G1 X221.841 Y179.456 E9.40562
G1 X220.306 Y180.287 E9.55983
G1 X218.956 Y181.418 E9.71542
G0 F3500 X218.598 Y181.066
G1 F900 X217.414 Y182.526 E9.88149
G1 X216.531 Y184.205 E10.04909
G1 X215.997 Y186.004 E10.21488
G1 X215.812 Y187.85 E10.37879
G1 X216.001 Y189.773 E10.5495
G1 X216.54 Y191.606 E10.71829
G1 X217.413 Y193.273 E10.88454
G1 X218.588 Y194.721 E11.04929
G1 X220.028 Y195.921 E11.21489
G1 X221.619 Y196.791 E11.37509
G1 X223.416 Y197.339 E11.54107
G1 X225.242 Y197.524 E11.70322
G1 X227.013 Y197.348 E11.86045
G1 X228.822 Y196.791 E12.02768
G1 X230.419 Y195.915 E12.1886
G1 X231.864 Y194.712 E12.35471
G1 X233.029 Y193.279 E12.51787
G1 X233.91 Y191.59 E12.68617
G1 X234.451 Y189.764 E12.85443
G1 X234.638 Y187.869 E13.02266
G1 X234.45 Y186.001 E13.18852
G1 X233.916 Y184.191 E13.35525
G1 X233.028 Y182.513 E13.52297
G1 X231.872 Y181.089 E13.68501
G1 X230.414 Y179.858 E13.8536
G1 X228.828 Y179.003 E14.01278
G1 X227.042 Y178.452 E14.1779
G1 X225.214 Y178.269 E14.34021
G1 X223.388 Y178.451 E14.50233
G1 X221.651 Y178.991 E14.66304
G1 X220.022 Y179.872 E14.82665
G1 X218.598 Y181.066 E14.99083
G0 F3500 X218.24 Y180.714
G1 F900 X216.993 Y182.251 E15.16569
G1 X216.066 Y184.015 E15.34174
G1 X215.505 Y185.906 E15.51601
G1 X215.31 Y187.854 E15.68897
G1 X215.508 Y189.868 E15.86776
G1 X216.074 Y191.793 E16.04502
G1 X216.993 Y193.548 E16.22004
G1 X218.231 Y195.074 E16.39365
G1 X219.746 Y196.337 E16.56791
G1 X221.424 Y197.254 E16.73684
G1 X223.321 Y197.832 E16.91205
G1 X225.242 Y198.027 E17.08263
G1 X227.11 Y197.841 E17.24848
G1 X229.015 Y197.255 E17.42457
G1 X230.703 Y196.328 E17.5947
G1 X232.221 Y195.065 E17.76917
G1 X233.452 Y193.552 E17.94149
G1 X234.374 Y191.783 E18.11773
G1 X234.945 Y189.857 E18.29521
G1 X235.14 Y187.873 E18.47133
G1 X234.941 Y185.898 E18.6467
G1 X234.383 Y184.006 E18.82097
G1 X233.447 Y182.236 E18.99786
G1 X232.229 Y180.735 E19.16864
G1 X230.699 Y179.444 E19.3455
G1 X229.025 Y178.541 E19.51354
G1 X227.14 Y177.96 E19.68781
G1 X225.209 Y177.766 E19.85926
G1 X223.291 Y177.957 E20.02955
G1 X221.454 Y178.529 E20.19953
G1 X219.742 Y179.455 E20.37149
G1 X218.24 Y180.714 E20.54464
G0 F3500 X217.881 Y180.361
G1 F900 X216.573 Y181.974 E20.72811
G1 X215.6 Y183.826 E20.91293
G1 X215.012 Y185.808 E21.09558
G1 X214.807 Y187.848 E21.27672
G1 X215.016 Y189.968 E21.46492
G1 X215.607 Y191.981 E21.65027
G1 X216.574 Y193.826 E21.8343
G1 X217.87 Y195.424 E22.01607
G1 X219.465 Y196.753 E22.19949
G1 X221.231 Y197.719 E22.37733
G1 X223.216 Y198.324 E22.56067
G1 X225.24 Y198.529 E22.74039
G1 X227.213 Y198.333 E22.91556
G1 X229.21 Y197.718 E23.10017
G1 X230.986 Y196.744 E23.27912
G1 X232.581 Y195.416 E23.46248
G1 X233.869 Y193.832 E23.64285
G1 X234.839 Y191.971 E23.82826
G1 X235.437 Y189.954 E24.01412
G1 X235.642 Y187.867 E24.19939
G1 X235.435 Y185.806 E24.38239
G1 X234.847 Y183.814 E24.56588
G1 X233.865 Y181.957 E24.75147
G1 X232.59 Y180.386 E24.93022
G1 X230.981 Y179.029 E25.11618
G1 X229.217 Y178.077 E25.29327
G1 X227.237 Y177.466 E25.47634
G1 X225.21 Y177.263 E25.65631
G1 X223.196 Y177.464 E25.83513
G1 X221.255 Y178.068 E26.01472
G1 X219.459 Y179.04 E26.19514
G1 X217.881 Y180.361 E26.37695
G0 F3500 X217.523 Y180.009
G1 F900 X216.156 Y181.695 E26.56871
G1 X215.135 Y183.639 E26.76271
G1 X214.52 Y185.71 E26.95357
G1 X214.305 Y187.853 E27.14385
G1 X214.522 Y190.058 E27.3396
G1 X215.143 Y192.172 E27.53425
G1 X216.153 Y194.101 E27.72662
G1 X217.513 Y195.777 E27.91731
G1 X219.184 Y197.17 E28.10951
G1 X221.034 Y198.181 E28.29576
G1 X223.115 Y198.816 E28.48798
G1 X225.244 Y199.031 E28.67703
G1 X227.311 Y198.826 E28.86054
G1 X229.407 Y198.181 E29.05429
G1 X231.27 Y197.158 E29.24206
G1 X232.932 Y195.775 E29.43308
G1 X234.293 Y194.101 E29.62368
G1 X235.306 Y192.158 E29.81727
G1 X235.93 Y190.053 E30.01124
G1 X236.145 Y187.871 E30.20495
G1 X235.927 Y185.706 E30.39719
G1 X235.313 Y183.626 E30.58879
G1 X234.285 Y181.682 E30.78307
G1 X232.944 Y180.03 E30.97105
G1 X231.268 Y178.615 E31.16484
G1 X229.411 Y177.613 E31.35126
G1 X227.341 Y176.975 E31.54263
G1 X225.21 Y176.761 E31.73184
G1 X223.09 Y176.972 E31.92006
G1 X221.062 Y177.604 E32.10773
G1 X219.178 Y178.623 E32.29696
G1 X217.523 Y180.009 E32.48768
G0 F3500 X217.162 Y179.66
G1 F900 X215.736 Y181.418 E32.68766
G1 X214.671 Y183.445 E32.88996
G1 X214.026 Y185.618 E33.09021
G1 X213.803 Y187.847 E33.28812
G1 X214.03 Y190.159 E33.49336
G1 X214.677 Y192.36 E33.69604
G1 X215.733 Y194.376 E33.89711
G1 X217.156 Y196.13 E34.09665
G1 X218.9 Y197.584 E34.29725
G1 X220.841 Y198.645 E34.49268
G1 X223.02 Y199.309 E34.69393
G1 X225.243 Y199.534 E34.89133
G1 X227.403 Y199.32 E35.08309
G1 X229.606 Y198.642 E35.28673
G1 X231.552 Y197.573 E35.48289
G1 X233.291 Y196.127 E35.6827
G1 X234.711 Y194.381 E35.88153
G1 X235.771 Y192.346 E36.08424
G1 X236.422 Y190.15 E36.2866
G1 X236.647 Y187.865 E36.48945
G1 X236.42 Y185.609 E36.68976
G1 X235.78 Y183.44 E36.88956
G1 X234.704 Y181.404 E37.09301
G1 X233.303 Y179.679 E37.28934
G1 X231.55 Y178.199 E37.49202
G1 X229.604 Y177.149 E37.68738
G1 X227.439 Y176.481 E37.88755
G1 X225.21 Y176.258 E38.08546
G1 X222.994 Y176.479 E38.28221
G1 X220.864 Y177.142 E38.47929
G1 X218.898 Y178.205 E38.67674
G1 X217.162 Y179.66 E38.87686
G0 F3500 X216.806 Y179.304
G1 F900 X215.317 Y181.142 E39.08584
G1 X214.204 Y183.26 E39.29722
G1 X213.534 Y185.516 E39.50514
G1 X213.3 Y187.851 E39.71246
G1 X213.536 Y190.254 E39.92578
G1 X214.211 Y192.547 E40.13696
G1 X215.312 Y194.651 E40.34675
G1 X216.801 Y196.486 E40.55553
G1 X218.616 Y197.999 E40.76429
G1 X220.643 Y199.106 E40.96833
G1 X222.921 Y199.801 E41.17875
G1 X225.242 Y200.036 E41.38485
G1 X227.506 Y199.811 E41.58585
G1 X229.801 Y199.105 E41.79798
G1 X231.832 Y197.99 E42.00268
G1 X233.65 Y196.478 E42.21158
G1 X235.13 Y194.657 E42.4189
G1 X236.239 Y192.53 E42.63082
G1 X236.915 Y190.247 E42.84117
G1 X237.15 Y187.869 E43.05229
G1 X236.913 Y185.513 E43.26148
G1 X236.244 Y183.247 E43.47022
G1 X235.122 Y181.125 E43.68229
G1 X233.663 Y179.328 E43.88679
G1 X231.833 Y177.783 E44.09838
G1 X229.797 Y176.685 E44.30274
G1 X227.543 Y175.99 E44.51113
G1 X225.21 Y175.756 E44.71827
G1 X222.889 Y175.988 E44.92435
G1 X220.676 Y176.677 E45.12912
G1 X218.61 Y177.794 E45.33661
G1 X216.806 Y179.304 E45.54446
G0 F3500 X216.448 Y178.952
G1 F900 X214.897 Y180.867 E45.76217
G1 X213.739 Y183.07 E45.98205
G1 X213.041 Y185.422 E46.1988
G1 X212.797 Y187.85 E46.41439
G1 X213.043 Y190.344 E46.63579
G1 X213.747 Y192.739 E46.85634
G1 X214.894 Y194.93 E47.07483
G1 X216.441 Y196.836 E47.2917
G1 X218.334 Y198.414 E47.50943
G1 X220.452 Y199.572 E47.72269
G1 X222.821 Y200.294 E47.94149
G1 X225.242 Y200.539 E48.15647
G1 X227.603 Y200.305 E48.36608
G1 X229.998 Y199.568 E48.58746
G1 X232.116 Y198.405 E48.80094
G1 X234.007 Y196.832 E49.01825
G1 X235.551 Y194.933 E49.23447
G1 X236.703 Y192.723 E49.45466
G1 X237.409 Y190.34 E49.67423
G1 X237.653 Y187.868 E49.89369
G1 X237.406 Y185.416 E50.11141
G1 X236.71 Y183.06 E50.32845
G1 X235.542 Y180.85 E50.54929
G1 X234.022 Y178.977 E50.7624
G1 X232.115 Y177.368 E50.98283
G1 X229.994 Y176.224 E51.19574
G1 X227.636 Y175.496 E51.41376
G1 X225.21 Y175.253 E51.62916
G1 X222.792 Y175.494 E51.84385
G1 X220.479 Y176.215 E52.05789
G1 X218.329 Y177.377 E52.2738
G1 X216.448 Y178.952 E52.49055
G0 F3500 X216.087 Y178.603
G1 F900 X214.477 Y180.59 E52.71649
G1 X213.275 Y182.876 E52.94467
G1 X212.549 Y185.325 E53.17034
G1 X212.295 Y187.849 E53.39445
G1 X212.551 Y190.444 E53.62482
G1 X213.28 Y192.926 E53.85336
G1 X214.473 Y195.204 E54.08055
G1 X216.084 Y197.19 E54.30647
G1 X218.053 Y198.831 E54.53292
G1 X220.255 Y200.034 E54.7546
G1 X222.721 Y200.786 E54.98237
G1 X225.24 Y201.041 E55.20606
G1 X227.706 Y200.796 E55.42499
G1 X230.193 Y200.031 E55.65487
G1 X232.399 Y198.82 E55.8772
G1 X234.363 Y197.185 E56.10297
G1 X235.97 Y195.21 E56.32792
G1 X237.168 Y192.911 E56.55695
G1 X237.901 Y190.437 E56.78492
G1 X238.155 Y187.867 E57.01307
G1 X237.898 Y185.321 E57.23915
G1 X237.175 Y182.869 E57.465
G1 X235.961 Y180.572 E57.69453
G1 X234.378 Y178.623 E57.91636
G1 X232.4 Y176.954 E58.14501
G1 X230.187 Y175.76 E58.36716
G1 X227.738 Y175.005 E58.59357
G1 X225.211 Y174.751 E58.81795
G1 X222.691 Y175.003 E59.0417
G1 X220.281 Y175.753 E59.26468
G1 X218.049 Y176.96 E59.48886
G1 X216.087 Y178.603 E59.71495
G0 F3500 X222.761 Y169.199
G1 F900 X223.992 Y169.585 E59.82893
G1 X225.238 Y169.696 E59.93944
G1 X226.454 Y169.584 E60.04733
G1 X227.653 Y169.207 E60.15837
G1 X228.76 Y168.62 E60.26907
G1 X229.751 Y167.791 E60.38321
G1 X230.54 Y166.801 E60.49506
G1 X231.122 Y165.707 E60.60454
G1 X231.498 Y164.454 E60.72011
G1 X231.612 Y163.173 E60.83373
G1 X231.494 Y161.924 E60.94457
G1 X231.121 Y160.689 E61.05855
G1 X230.533 Y159.58 E61.16944
G1 X229.735 Y158.593 E61.28158
G1 X228.791 Y157.81 E61.38993
G1 X227.681 Y157.206 E61.50157
G1 X226.469 Y156.822 E61.6139
G1 X225.262 Y156.702 E61.72106
G1 X223.95 Y156.826 E61.83749
G1 X222.782 Y157.2 E61.94584
G1 X221.67 Y157.788 E62.05697
G1 X220.689 Y158.628 E62.17107
G1 X219.908 Y159.602 E62.28137
G1 X219.333 Y160.689 E62.39001
G1 X218.942 Y161.938 E62.50563
G1 X218.833 Y163.217 E62.61904
G1 X218.957 Y164.426 E62.72641
G1 X219.319 Y165.689 E62.84249
G1 X219.908 Y166.81 E62.95436
G1 X220.712 Y167.796 E63.06676
G1 X221.652 Y168.593 E63.17564
G1 X222.761 Y169.199 E63.28729
G0 F3500 X222.96 Y168.738
G1 F900 X224.089 Y169.091 E63.3918
G1 X225.237 Y169.194 E63.49363
G1 X226.356 Y169.09 E63.59291
G1 X227.459 Y168.744 E63.69504
G1 X228.481 Y168.202 E63.79725
G1 X229.392 Y167.44 E63.90217
G1 X230.12 Y166.526 E64.00541
G1 X230.658 Y165.517 E64.10643
G1 X231.005 Y164.36 E64.21314
G1 X231.11 Y163.177 E64.31807
G1 X231.001 Y162.022 E64.42056
G1 X230.655 Y160.878 E64.52616
G1 X230.115 Y159.859 E64.62804
G1 X229.375 Y158.944 E64.73201
G1 X228.509 Y158.226 E64.83139
G1 X227.487 Y157.669 E64.93422
G1 X226.363 Y157.313 E65.03839
G1 X225.265 Y157.204 E65.13587
G1 X224.05 Y157.319 E65.24369
G1 X222.978 Y157.662 E65.34313
G1 X221.952 Y158.205 E65.44568
G1 X221.05 Y158.977 E65.55058
G1 X220.328 Y159.878 E65.65258
G1 X219.796 Y160.885 E65.7532
G1 X219.436 Y162.035 E65.85966
G1 X219.335 Y163.214 E65.9642
G1 X219.449 Y164.325 E66.06287
G1 X219.787 Y165.504 E66.17123
G1 X220.33 Y166.537 E66.27433
G1 X221.071 Y167.445 E66.37787
G1 X221.933 Y168.176 E66.47773
G1 X222.96 Y168.738 E66.58115
G0 F3500 X223.159 Y168.277
G1 F900 X224.186 Y168.598 E66.67622
G1 X225.235 Y168.692 E66.76926
G1 X226.259 Y168.597 E66.86012
G1 X227.266 Y168.281 E66.95336
G1 X228.197 Y167.787 E67.04648
G1 X229.033 Y167.088 E67.14275
G1 X229.702 Y166.248 E67.23762
G1 X230.192 Y165.328 E67.32971
G1 X230.511 Y164.264 E67.42785
G1 X230.608 Y163.173 E67.52461
G1 X230.509 Y162.125 E67.61761
G1 X230.188 Y161.064 E67.71555
G1 X229.698 Y160.139 E67.80802
G1 X229.018 Y159.297 E67.90364
G1 X228.226 Y158.641 E67.9945
